X:1
P: The Auld Wife Ayont the Fire
C: 18th century Scottish
C: Jerry Holland tunebook
C: Arr. T. Traub 11-03-02
K: G
M: 4/4
L: 1/8
|: c|"G"B2 A>G "C"E<E c2|"G"B2 A>G G>Bg>d|"G"B2 A>G "C"E<E c2|1 "D"d>B A<B "G" G2 "D"G/A/B/c/ :|2 "D"d>B A<B "G"G2 G>c|
|: "G"B<dd>B "Am"c>dc>A|"G"B<dd>B d/e/f g>d|"G"B<dd>B "C"c>dc>A|"D"d>B A<B "G"G2 G :|

